X:27
T:Chassepain
C:Gilles Chabenat
M:2/4
R:bourr\'ee 2 temps
Q:250
L:1/8
K:G
"G"g>d dg|"F"=fe de|1"Am"A>B ce|"G"dA BG:|2"Am"A>B cd|"D"ef ga:|
|:"Am"ec A"G"g-|gc A"Am"a-|1af "G"de|fg fd:|2af "G"dB|cd BG:|
